X:1
T:Was bringet Jesus aus dem Grabe
T:Georg Böhm 1661 - 1733
T:Source: Denkmäler Deutscher Tonkunst- erste Folge, 44.Band, nr. XXV. Verlag von Breitkopf & Härtel, Leipzig, 1911 Original in A
T:Was bringet Jesus aus dem Grabe
T:Wim Looyestijn - 2018. May be freely copied for non-commercial use.
T:Wim Looyestijn - 2018. May be freely copied for non-commercial use.
T:Wim Looyestijn - 2018. May be freely copied for non-commercial use.
T:Wim Looyestijn - 2018. May be freely copied for non-commercial use.
T:Wim Looyestijn - 2018. May be freely copied for non-commercial use.
T:Wim Looyestijn - 2018. May be freely copied for non-commercial use.
T:Wim Looyestijn - 2018. May be freely copied for non-commercial use.
T:Wim Looyestijn - 2018. May be freely copied for non-commercial use.
T:Wim Looyestijn - 2018. May be freely copied for non-commercial use.
C:Georg Böhm
C:1661 - 1733
Z:Wim Looyestijn - 2018. May be freely copied for non-commercial use.
%%score 1 { ( 2 3 ) | 4 }
L:1/8
Q:1/4=60
M:12/8
K:G
V:1 treble nm="MusicXML Part"
V:2 treble nm="MusicXML Part"
V:3 treble 
V:4 bass 
V:1
 z12 | z12 | GB>c d2 D E3/2 F/G A2 A | z12 | z12 | GB>c d2 D E3/2 F/G A2 A | cB>A B3 EF>G G3- | %7
w: ||1. Was brin- get Je- sus aus dem * Gra- be?|||Was brin- get Je- sus aus dem * Gra- be?|Was hat der Held für Raub ge- macht?|
w: ||10. Geht eil- et, beu- tet, braucht die * Gü- ter,|||geht eil- et, beu- tet, braucht die * Gü- ter,|so die- ser Ü- ber- win- der gibt,|
 G/A/D/E/F/G/ E/D/E/G/F/G/ A/B/E/F/G/A/ F2 z | dA>B cB/A/B EF>G G2 z || z12 | z12 | %11
w: |Was hat der Held * * * für Raub ge- macht?|||
w: |so die- ser Ü- * * * ber- win- der gibt,|||
 GB>c d2 D E3/2 F/G A2 A | z12 | z12 | GB>c d2 D E3/2 F/G A2 A | cB>A B3 EF>G G3- | %16
w: Den Ho- nig, der die Mat- ten * la- be,|||den Ho- nig der die Mat- ten * la- be,|hat un- ser Sim- son her- ge- bracht,|
w: dies al- les schenkt der Men- schen- * hü- ter,|||dies al- les schenkt der Men- schen- * hü- ter,|der in all' E- wig- keit uns liebt;|
 G/A/D/E/F/G/ E/D/E/G/F/G/ A/B/E/F/G/A/ F2 z | dA>B cB/A/B EF>G G2 z || BF>A G3/2 E/F cA>G F2 F | %19
w: |hat un- ser Sim- * * * son her- ge- bracht,|er will uns rei- che * Beu- * te ge- ben,|
w: |der in all' E- * * * wig- keit uns liebt;|singt nu: Tri- umph, Christ * ist * er- stan- den|
 BA>G A3 GF>G E2 E | AE>G F2 G A3/2 B/c B2 c | dc>d e2 c Ad/c/B/A/ Gc/B/A/G/ | %22
w: Ge- rech- tig- keit, und Freud' und Le- ben,|er will uns rei- che Beu- te * ge- ben,|Ge- rech- tig- keit, und Freud' * * * * * * * * *|
w: von To- des und des Gra- bes Ban- den,|singt nu: Tri- umph, Christ ist er- * stan- den|von To- des und des Gra- * * * * * * * * *|
 FB/A/G/F/ EA/G/F/E/ D G2 c>FG/A/ | B/c<AB/ G2 G dc>d e2 c | %24
w: |* * * und Le- ben, Ge- rech- tig- keit, und|
w: |* * * bes Ban- den, von To- des und des|
 Ad/c/B/A/ Gc/B/A/G/ FB/A/G/F/ EA/G/F/E/ | DGA/B/ c>FG/A/ B/c<AB/ G2 G | z12 |] %27
w: Freud' * * * * * * * * * * * * * * * * * * *|* * * * * * * * * * * und Le- ben.||
w: Gra- * * * * * * * * * * * * * * * * * * *|* * * * * * * * * * * bes Ban- den.||
V:2
 B"^Instrument change"dB Ad>A BA/G/F/G/ FDd | %1
"^Instrument change" B/c/"^Instrument change"B/A/G/F/ EEF/G/ AAd/c/ B/c<AG/ | %2
"^Instrument change" [B,DG]2"^Instrument change" z DG>F E/G/E/F/G [FA]Dd | %3
"^Instrument change" B"^Instrument change"dB Ad>A BA/G/F/G/ FDd | %4
"^Instrument change" B/c/"^Instrument change"B/A/G/F/ EEF/G/ AAd/c/ B/c<AG/ | %5
"^Instrument change" [B,DG]2"^Instrument change" z DG>F E/G/E/F/G [FA]Dd | %6
"^Instrument change" c/B/c/e/"^Instrument change"d/c/ B/A/B/d/G/A/ B/c<AG/ [B,DG]DE/F/ | %7
"^Instrument change" G"^Instrument change"BG EE/G/A/B/ cAc FG/A/B/c/ | %8
"^Instrument change" d"^Instrument change"cc/B/ cB/A/B/G/ E/c<AG/ G/F/G/A/B/c/ || %9
"^Instrument change" B"^Instrument change"dBAd>A BA/G/F/G/ FDd | %10
"^Instrument change" B/c/"^Instrument change"B/A/G/F/ EEF/G/ AAd/c/ B/c<AG/ | %11
"^Instrument change" [B,DG]2"^Instrument change" z DG>F E/G/E/F/G [FA]Dd | %12
"^Instrument change" B"^Instrument change"dB Ad>A BA/G/F/G/ FDd | %13
"^Instrument change" B/c/"^Instrument change"B/A/G/F/ EEF/G/ AAd/c/ B/c<AG/ | %14
"^Instrument change" [B,DG]2"^Instrument change" z DG>F E/G/E/F/G [FA]Dd | %15
"^Instrument change" c/B/c/e/"^Instrument change"d/c/ B/A/B/d/G/A/ B/c<AG/ [B,DG]DE/F/ | %16
"^Instrument change" G"^Instrument change"BG EE/G/A/B/ cAc FG/A/B/c/ | %17
"^Instrument change" d"^Instrument change"cc/B/ cB/A/B/G/ E/c<AG/ G/F/G/A/B/c/ || %18
"^Instrument change" [B,FB]B,"^Instrument change"B G/A/G/F/E/G/ [CEc]Cc F/G/F/E/^D/F/ | %19
"^Instrument change" [EBe]E"^Instrument change"e A>Bc B/c/BB GF/G/F/E/ | %20
"^Instrument change" [A,EA]A,"^Instrument change"A F/G/F/E/D/G/ A>GF B/c/B/A/G/c/ | %21
"^Instrument change" [DGd]D"^Instrument change"d e/d/e/d/c/B/ ADd c/B/A/G/F/E/ | %22
"^Instrument change" [DF]B,"^Instrument change"B EAF d G2 c F2 | %23
"^Instrument change" [B,B]"^Instrument change"[DA][CA] G/F/G/A/B/c/ [DGd]Dd e/d/e/d/c/B/ | %24
"^Instrument change" [DFA]D"^Instrument change"d c/B/A/G/F/E/ [DF]B,B EAF | %25
"^Instrument change" G"^Instrument change" G2 Ec/A/B/c/ [Bd]/[GB]/[DGA][CFA] [B,DG]2 [B,DG] | %26
"^Instrument change" B"^Instrument change"d/c/B/A/ Gc/B/A/G/ FG/A/A G2 z |] %27
V:3
 D3 FDF GDB, D z z | z D2 D/B,/C/B,/A,/G,/ [CE][DF][DF] [DG][EG][CF] | x3 B,>CD DCB, x3 | %3
 D3 FDF GDB, D z z | z D2 D/B,/C/B,/A,/G,/ [CE][DF][DF] [DG][EG][CF] | x3 B,>CD DCB, x3 | %6
 G2 D D2 z [EG][CF][CF] x3 | D3 DCE E3 EE[DF] | [DG][EA][DF] [CG][CD][B,D] C[CF][CF] [B,D]2 z || %9
 D3 FDF GDB, D z z | z D2 D/B,/C/B,/A,/G,/ [CE][DF][DF] [DG][EG][CF] | x3 B,>CD DCB, x3 | %12
 D3 FDF GDB, D z z | z D2 D/B,/C/B,/A,/G,/ [CE][DF][DF] [DG][EG][CF] | x3 B,>CD DCB, x3 | %15
 G2 D D2 z [EG][CF][CF] x3 | D3 DCE E3 EE[DF] | [DG][EA][DF] [CG][CD][B,D] C[CF][CF] [B,D]2 z || %18
 x3 [B,E]3 x3 [B,^D]3 | x3 E[DE][CE][EG][EF][^DF] [B,E]2 z | x3 [A,D]2 A,[A,D][A,D]C B,2 z | %21
 x3 [Gc]2 z x3 [CG]2 z | x3 C2 D DD/F/E/D/ CC/E/D/C/ | B,/G/GF [B,D]2 D x3 [Gc]2 z | %24
 x3 [CG]2 z x3 C2 D | DD/F/E/D/ C[CE]/F/G/A/ x6 | [DG][DG]D [B,E]C[CD] [CD][B,D][CF] CB, z |] %27
V:4
 G,B,G, DF,D, G,B,,G,, D,3 | z G,/F,/E,/D,/ C,E,/D,/C,/B,,/ A,,D,/C,/B,,/A,,/ G,,D,D,, | %2
 G,,2 z G,,>A,,B,, C,D,E, D,2 z | G,B,G, DF,D, G,B,,G,, D,3 | %4
 z G,/F,/E,/D,/ C,E,/D,/C,/B,,/ A,,D,/C,/B,,/A,,/ G,,D,D,, | G,,2 z G,,>A,,B,, C,D,E, D,2 z | %6
 E,2 F, G,2 z C,D,D,, G,,2 z | B,,G,,B,, C,2 z A,,C,A,, D,2 z | B,,C,D, E,F,G, C,D,D,, G,,2 z || %9
 G,B,G, DF,D, G,B,,G,, D,3 | z G,/F,/E,/D,/ C,E,/D,/C,/B,,/ A,,D,/C,/B,,/A,,/ G,,D,D,, | %11
 G,,2 z G,,>A,,B,, C,D,E, D,2 z | G,B,G, DF,D, G,B,,G,, D,3 | %13
 z G,/F,/E,/D,/ C,E,/D,/C,/B,,/ A,,D,/C,/B,,/A,,/ G,,D,D,, | G,,2 z G,,>A,,B,, C,D,E, D,2 z | %15
 E,2 F, G,2 z C,D,D,, G,,2 z | B,,G,,B,, C,2 z A,,C,A,, D,2 z | B,,C,D, E,F,G, C,D,D,, G,,2 z || %18
 ^D,,2 z E,,2 z A,,2 z B,,2 z | G,,2 z C,B,,>A,, E, B,,2 E,,2 z | ^C,2 z D,2 E,F,>E,D, G,2 z | %21
 B,,2 z C,2 z D,2 z E,2 z | D,2 z C,2 z B,,E,/D,/C,/B,,/ A,,D,/C,/B,,/A,,/ | %23
 G,, D,,2 G,,2 A,, B,,2 z C,2 z | D,2 z E,2 z D,2 z C,2 z | %25
 B,,E,/D,/C,/B,,/ A,,G,,/C,/B,,/A,,/ G,, D,,2 G,,D,/C,/D,/A,,/ | %26
 G,,B,,/A,,/G,,/F,,/ E,,A,,/G,,/F,,/E,,/ D,,D,D,, G,,2 z |] %27

